src/assets/img/phonepe.svg

<svg width="160" height="45" viewBox="0 0 160 45" fill="none" xmlns="http://www.w3.org/2000/svg">
<g id="phonepe-1 1" clip-path="url(#clip0_500_468)">
<path id="Vector" d="M109.872 35.3562V27.1864C109.872 25.1756 109.144 24.1702 107.324 24.1702C106.596 24.1702 105.746 24.2962 105.261 24.4214V36.3616C105.261 36.7387 104.896 37.1158 104.532 37.1158H101.74C101.376 37.1158 101.012 36.7387 101.012 36.3616V22.4106C101.012 21.9076 101.376 21.5312 101.74 21.4052C103.561 20.777 105.382 20.3998 107.323 20.3998C111.693 20.3998 114.12 22.7877 114.12 27.1871V36.4875C114.12 36.8646 113.756 37.2417 113.392 37.2417H111.693C110.601 37.2411 109.872 36.3616 109.872 35.3562ZM120.796 30.4545L120.675 31.5858C120.675 33.0942 121.646 33.9737 123.223 33.9737C124.437 33.9737 125.529 33.5966 126.743 32.9683C126.865 32.9683 126.986 32.8424 127.107 32.8424C127.35 32.8424 127.472 32.9683 127.593 33.0936C127.715 33.2195 127.957 33.5966 127.957 33.5966C128.2 33.9737 128.443 34.4761 128.443 34.8532C128.443 35.4814 128.079 36.1097 127.594 36.3616C126.259 37.1158 124.681 37.4929 122.982 37.4929C121.04 37.4929 119.462 36.9899 118.248 35.9845C117.035 34.8532 116.307 33.3454 116.307 31.4599V26.5581C116.307 22.6618 118.734 20.2739 122.861 20.2739C126.866 20.2739 129.172 22.5366 129.172 26.5581V29.5743C129.172 29.9514 128.808 30.3285 128.444 30.3285H120.798L120.796 30.4545ZM120.675 27.6895H125.287V26.4329C125.287 24.9245 124.437 23.9191 122.981 23.9191C121.524 23.9191 120.675 24.7985 120.675 26.4329V27.6895ZM151.625 30.4545L151.503 31.5858C151.503 33.0942 152.474 33.9737 154.052 33.9737C155.265 33.9737 156.358 33.5966 157.572 32.9683C157.694 32.9683 157.815 32.8424 157.936 32.8424C158.179 32.8424 158.3 32.9683 158.422 33.0936C158.544 33.2195 158.786 33.5966 158.786 33.5966C159.029 33.9737 159.272 34.4761 159.272 34.8532C159.272 35.4814 158.908 36.1097 158.423 36.3616C157.088 37.1158 155.51 37.4929 153.811 37.4929C151.869 37.4929 150.291 36.9899 149.077 35.9845C147.864 34.8532 147.135 33.3454 147.135 31.4599V26.5581C147.135 22.6618 149.563 20.2739 153.69 20.2739C157.695 20.2739 160.001 22.5366 160.001 26.5581V29.5743C160.001 29.9514 159.637 30.3285 159.273 30.3285H151.626V30.4545H151.625ZM151.503 27.6895H156.115V26.4329C156.115 24.9245 155.266 23.9191 153.809 23.9191C152.353 23.9191 151.503 24.7985 151.503 26.4329V27.6895ZM80.1362 37.2411H81.8354C82.1996 37.2411 82.5638 36.864 82.5638 36.4868V27.1864C82.5638 22.913 80.3788 20.3992 76.7377 20.3992C75.6452 20.3992 74.4318 20.6504 73.7034 20.9022V16.2517C73.7034 15.2463 72.8541 14.3661 71.8826 14.3661H70.1834C69.8192 14.3661 69.455 14.7433 69.455 15.1204V36.4868C69.455 36.864 69.8192 37.2411 70.1834 37.2411H72.9751C73.3393 37.2411 73.7034 36.864 73.7034 36.4868V24.6726C74.3102 24.4214 75.1601 24.2955 75.7668 24.2955C77.5877 24.2955 78.3154 25.175 78.3154 27.3117V35.4815C78.437 36.3616 79.1653 37.2411 80.1362 37.2411ZM98.4636 26.6834V31.3339C98.4636 35.2303 95.9151 37.6182 91.6667 37.6182C87.5399 37.6182 84.8697 35.2303 84.8697 31.3339V26.6834C84.8697 22.7871 87.4183 20.3992 91.6667 20.3992C95.9151 20.3992 98.4636 22.7877 98.4636 26.6834ZM94.2159 26.6834C94.2159 25.175 93.3666 24.1696 91.7883 24.1696C90.21 24.1696 89.3607 25.0491 89.3607 26.6834V31.3339C89.3607 32.8424 90.21 33.7218 91.7883 33.7218C93.3666 33.7218 94.2159 32.8424 94.2159 31.3339V26.6834ZM67.1497 24.5474C67.1497 28.5696 64.237 31.3346 60.3528 31.3346C59.3819 31.3346 58.5319 31.2087 57.6826 30.8316V36.4875C57.6826 36.8646 57.3185 37.2417 56.9543 37.2417H54.1626C53.7984 37.2417 53.4342 36.8646 53.4342 36.4875V16.5035C53.4342 16.0005 53.7984 15.6241 54.1626 15.4981C55.9834 14.8698 57.8036 14.4927 59.7454 14.4927C64.1148 14.4927 67.1491 17.2577 67.1491 21.5312C67.1497 21.5305 67.1497 24.5474 67.1497 24.5474ZM62.7803 21.2793C62.7803 19.2685 61.4453 18.2631 59.6244 18.2631C58.5319 18.2631 57.8036 18.6402 57.8036 18.6402V26.9353C58.5319 27.3124 58.8961 27.4383 59.7454 27.4383C61.5662 27.4383 62.9013 26.307 62.9013 24.4221V21.28H62.7803V21.2793ZM145.556 24.5474C145.556 28.5696 142.644 31.3346 138.759 31.3346C137.789 31.3346 136.939 31.2087 136.089 30.8316V36.4875C136.089 36.8646 135.725 37.2417 135.361 37.2417H132.569C132.205 37.2417 131.841 36.8646 131.841 36.4875V16.5035C131.841 16.0005 132.205 15.6241 132.569 15.4981C134.39 14.8698 136.21 14.4927 138.152 14.4927C142.521 14.4927 145.556 17.2577 145.556 21.5312C145.556 21.5305 145.556 24.5474 145.556 24.5474ZM141.187 21.2793C141.187 19.2685 139.852 18.2631 138.031 18.2631C136.939 18.2631 136.21 18.6402 136.21 18.6402V26.9353C136.939 27.3124 137.303 27.4383 138.152 27.4383C139.973 27.4383 141.308 26.307 141.308 24.4221V21.28H141.187V21.2793Z" fill="white"/>
<path id="Vector_2" d="M21.7267 44.998C33.7256 44.998 43.4526 34.9254 43.4526 22.5002C43.4526 10.075 33.7256 0.00238037 21.7267 0.00238037C9.72786 0.00238037 0.000854492 10.075 0.000854492 22.5002C0.000854492 34.9254 9.72786 44.998 21.7267 44.998Z" fill="white"/>
<path id="Vector_3" d="M31.5874 16.6288C31.5874 15.7493 30.8591 14.9951 30.0098 14.9951H27.0971L20.4217 7.07722C19.815 6.323 18.8441 6.07182 17.8732 6.323L15.5672 7.07722C15.2031 7.20314 15.0815 7.70551 15.3247 7.95669L22.6067 15.121H11.5608C11.1966 15.121 10.954 15.3722 10.954 15.7493V17.0059C10.954 17.8854 11.6824 18.6396 12.5317 18.6396H14.2309V24.6726C14.2309 29.1972 16.5369 31.837 20.4211 31.837C21.6346 31.837 22.6061 31.7111 23.8196 31.2087V35.2309C23.8196 36.3623 24.6689 37.2417 25.7614 37.2417H27.4606C27.8248 37.2417 28.1889 36.8646 28.1889 36.4875V18.5143H30.9807C31.3448 18.5143 31.5874 18.2632 31.5874 17.886V16.6288ZM23.8196 27.4376C23.0912 27.8147 22.1203 27.9407 21.392 27.9407C19.4502 27.9407 18.4793 26.9353 18.4793 24.6726V18.6396H23.8196V27.4376Z" fill="black"/>
</g>
<defs>
<clipPath id="clip0_500_468">
<rect width="160" height="45" fill="white" transform="translate(0.000854492 0.00012207)"/>
</clipPath>
</defs>
</svg>

<svg width="160" height="45" fill="none" xmlns="http://www.w3.org/2000/svg"><g clip-path="url(#a)"><path d="M109.872 35.356v-8.17c0-2.01-.728-3.016-2.548-3.016-.728 0-1.578.126-2.063.251v11.94c0 .378-.365.755-.729.755h-2.792c-.364 0-.728-.377-.728-.754V22.41c0-.503.364-.88.728-1.006 1.821-.628 3.642-1.005 5.583-1.005 4.37 0 6.797 2.388 6.797 6.787v9.3c0 .378-.364.755-.728.755h-1.699c-1.092 0-1.821-.88-1.821-1.886Zm10.924-4.902-.121 1.132c0 1.508.971 2.388 2.548 2.388 1.214 0 2.306-.377 3.52-1.006.122 0 .243-.126.364-.126.243 0 .365.126.486.252.122.125.364.503.364.503.243.377.486.88.486 1.256 0 .628-.364 1.257-.849 1.509-1.335.754-2.913 1.13-4.612 1.13-1.942 0-3.52-.502-4.734-1.508-1.213-1.13-1.941-2.639-1.941-4.524v-4.902c0-3.896 2.427-6.284 6.554-6.284 4.005 0 6.311 2.263 6.311 6.284v3.016c0 .377-.364.754-.728.754h-7.646l-.002.127Zm-.121-2.765h4.612v-1.256c0-1.509-.85-2.514-2.306-2.514-1.457 0-2.306.88-2.306 2.514v1.256Zm30.95 2.765-.122 1.132c0 1.508.971 2.388 2.549 2.388 1.213 0 2.306-.377 3.52-1.006.122 0 .243-.126.364-.126.243 0 .364.126.486.252.122.125.364.503.364.503.243.377.486.88.486 1.256 0 .628-.364 1.257-.849 1.509-1.335.754-2.913 1.13-4.612 1.13-1.942 0-3.52-.502-4.734-1.508-1.213-1.13-1.942-2.639-1.942-4.524v-4.902c0-3.896 2.428-6.284 6.555-6.284 4.005 0 6.311 2.263 6.311 6.284v3.016c0 .377-.364.754-.728.754h-7.647v.127h-.001Zm-.122-2.765h4.612v-1.256c0-1.509-.849-2.514-2.306-2.514-1.456 0-2.306.88-2.306 2.514v1.256Zm-71.367 9.552h1.7c.364 0 .728-.377.728-.754v-9.3c0-4.274-2.185-6.788-5.826-6.788-1.093 0-2.306.251-3.035.503v-4.65c0-1.006-.849-1.886-1.82-1.886h-1.7c-.364 0-.728.377-.728.754v21.367c0 .377.364.754.728.754h2.792c.364 0 .728-.377.728-.754V24.673c.607-.252 1.457-.377 2.064-.377 1.82 0 2.548.879 2.548 3.016v8.17c.122.88.85 1.76 1.821 1.76Zm18.328-10.558v4.65c0 3.897-2.549 6.285-6.797 6.285-4.127 0-6.797-2.388-6.797-6.284v-4.65c0-3.897 2.548-6.285 6.797-6.285 4.248 0 6.797 2.389 6.797 6.284Zm-4.248 0c0-1.508-.85-2.513-2.428-2.513-1.578 0-2.427.88-2.427 2.513v4.65c0 1.51.849 2.389 2.427 2.389 1.579 0 2.428-.88 2.428-2.388v-4.65ZM67.15 24.547c0 4.023-2.913 6.788-6.797 6.788-.971 0-1.821-.126-2.67-.503v5.655c0 .378-.364.755-.729.755h-2.791c-.365 0-.729-.377-.729-.755V16.503c0-.503.364-.879.729-1.005 1.82-.628 3.64-1.005 5.582-1.005 4.37 0 7.404 2.765 7.404 7.038v3.016Zm-4.37-3.268c0-2.01-1.335-3.016-3.156-3.016-1.092 0-1.82.377-1.82.377v8.295c.728.377 1.092.503 1.941.503 1.821 0 3.156-1.131 3.156-3.016V21.28h-.12Zm82.776 3.268c0 4.023-2.912 6.788-6.797 6.788-.97 0-1.82-.126-2.67-.503v5.655c0 .378-.364.755-.728.755h-2.792c-.364 0-.728-.377-.728-.755V16.503c0-.503.364-.879.728-1.005 1.821-.628 3.641-1.005 5.583-1.005 4.369 0 7.404 2.765 7.404 7.038v3.016Zm-4.369-3.268c0-2.01-1.335-3.016-3.156-3.016-1.092 0-1.821.377-1.821.377v8.295c.729.377 1.093.503 1.942.503 1.821 0 3.156-1.131 3.156-3.016V21.28h-.121ZM21.727 44.998c11.999 0 21.726-10.073 21.726-22.498S33.726.002 21.727.002C9.727.002 0 10.075 0 22.5s9.727 22.498 21.726 22.498Z" fill="#fff"/><path d="M31.587 16.629c0-.88-.728-1.634-1.577-1.634h-2.913l-6.675-7.918c-.607-.754-1.578-1.005-2.549-.754l-2.306.754c-.364.126-.486.629-.242.88l7.282 7.164H11.56c-.364 0-.607.251-.607.628v1.257c0 .88.728 1.634 1.578 1.634h1.699v6.033c0 4.524 2.306 7.164 6.19 7.164 1.214 0 2.185-.126 3.399-.628v4.022c0 1.131.849 2.01 1.941 2.01h1.7c.364 0 .728-.376.728-.754V18.514h2.792c.364 0 .606-.25.606-.628v-1.257ZM23.82 27.438c-.729.377-1.7.503-2.428.503-1.942 0-2.913-1.006-2.913-3.268V18.64h5.34v8.798Z" fill="#000"/></g><defs><clipPath id="a"><path fill="#fff" d="M0 0h160v45H0z"/></clipPath></defs></svg>
